X: 1412
T: Going To The Fair   #2
R: reel
%S: s:2 b:11(5+6)
B: O'Neill's 1850 #1412
O: F.O'Neill
Z: Bob Safranek, rjs@gsp.org
Z: Further compacted via repeats and multiple endings [JC]
Z: All ornaments (~) are mordents.
M: C|
L: 1/8
K: G
"^A"|: dG (3.G.G.G (dG)BG | efga bgfg | dG (3.G.G.G (dG)Bd |1 (eg)dB BA A z :|2 egfa (bg)g2 |]
"^B"|: ((3aba) (ba) ((3gag) d2 | egdg egdg |1 ((3aba) (ba) geef | gedB (~BA)A2 :|2 bg ((3agf) geef | gedB (~BA)A2 |]
